dist/img/svg/header-interface.svg

<svg width="50" height="50" viewBox="0 0 50 50" fill="none" xmlns="http://www.w3.org/2000/svg">
<path d="M25.0352 19.9991C24.3731 19.9991 23.7381 20.2625 23.2699 20.7313C22.8017 21.2001 22.5387 21.836 22.5387 22.499V32.4986C22.5387 33.1616 22.8017 33.7974 23.2699 34.2663C23.7381 34.7351 24.3731 34.9985 25.0352 34.9985C25.6973 34.9985 26.3323 34.7351 26.8005 34.2663C27.2686 33.7974 27.5317 33.1616 27.5317 32.4986V22.499C27.5317 21.836 27.2686 21.2001 26.8005 20.7313C26.3323 20.2625 25.6973 19.9991 25.0352 19.9991ZM15.0493 27.4988C14.3871 27.4988 13.7522 27.7622 13.284 28.231C12.8158 28.6998 12.5528 29.3357 12.5528 29.9987V32.4986C12.5528 33.1616 12.8158 33.7974 13.284 34.2663C13.7522 34.7351 14.3871 34.9985 15.0493 34.9985C15.7114 34.9985 16.3464 34.7351 16.8145 34.2663C17.2827 33.7974 17.5457 33.1616 17.5457 32.4986V29.9987C17.5457 29.3357 17.2827 28.6998 16.8145 28.231C16.3464 27.7622 15.7114 27.4988 15.0493 27.4988ZM25.0352 0C21.7568 0 18.5104 0.646616 15.4816 1.90293C12.4527 3.15924 9.70059 5.00064 7.38239 7.32201C2.70058 12.0102 0.0703668 18.3688 0.0703668 24.9989C0.0485421 30.7715 2.04457 36.3697 5.71242 40.8232L0.719452 45.823C0.373046 46.1745 0.138386 46.6209 0.0450823 47.1059C-0.0482215 47.5908 0.00401159 48.0926 0.195191 48.5479C0.402543 48.9977 0.738685 49.3756 1.16095 49.6338C1.58321 49.8919 2.07255 50.0186 2.56685 49.9978H25.0352C31.6563 49.9978 38.0062 47.364 42.688 42.6758C47.3698 37.9876 50 31.629 50 24.9989C50 18.3688 47.3698 12.0102 42.688 7.32201C38.0062 2.6338 31.6563 0 25.0352 0ZM25.0352 44.998H8.58337L10.9051 42.6731C11.141 42.4416 11.3286 42.1655 11.4572 41.8608C11.5858 41.5561 11.6527 41.2289 11.654 40.8982C11.6447 40.2388 11.3755 39.6098 10.9051 39.1483C7.63617 35.8785 5.60051 31.5749 5.14494 26.9708C4.68938 22.3666 5.84209 17.7467 8.40669 13.8982C10.9713 10.0497 14.7891 7.21058 19.2097 5.86467C23.6303 4.51877 28.3801 4.7493 32.65 6.517C36.9199 8.28469 40.4456 11.4802 42.6265 15.559C44.8074 19.6379 45.5085 24.3478 44.6104 28.8862C43.7123 33.4247 41.2706 37.511 37.7012 40.4488C34.1318 43.3867 29.6556 44.9944 25.0352 44.998ZM35.0211 14.9993C34.359 14.9993 33.724 15.2627 33.2558 15.7315C32.7877 16.2004 32.5246 16.8362 32.5246 17.4992V32.4986C32.5246 33.1616 32.7877 33.7974 33.2558 34.2663C33.724 34.7351 34.359 34.9985 35.0211 34.9985C35.6832 34.9985 36.3182 34.7351 36.7864 34.2663C37.2546 33.7974 37.5176 33.1616 37.5176 32.4986V17.4992C37.5176 16.8362 37.2546 16.2004 36.7864 15.7315C36.3182 15.2627 35.6832 14.9993 35.0211 14.9993Z" fill="white"/>
</svg>

<svg width="50" height="50" fill="none" xmlns="http://www.w3.org/2000/svg"><path d="M25.035 20a2.495 2.495 0 00-2.496 2.499v10a2.502 2.502 0 002.496 2.5 2.495 2.495 0 002.497-2.5v-10a2.502 2.502 0 00-2.497-2.5zm-9.986 7.499a2.495 2.495 0 00-2.496 2.5v2.5a2.502 2.502 0 002.496 2.5 2.495 2.495 0 002.497-2.5v-2.5a2.502 2.502 0 00-2.497-2.5zM25.035 0A24.935 24.935 0 007.382 7.322 25.016 25.016 0 00.07 24.999a24.745 24.745 0 005.642 15.824l-4.993 5a2.5 2.5 0 00-.524 2.725 2.499 2.499 0 002.372 1.45h22.468a24.948 24.948 0 0017.653-7.322A25.016 25.016 0 0050 24.999c0-6.63-2.63-12.989-7.312-17.677A24.948 24.948 0 0025.035 0zm0 44.998H8.583l2.322-2.325a2.5 2.5 0 00.749-1.775 2.5 2.5 0 00-.749-1.75 20.02 20.02 0 01-2.498-25.25A19.974 19.974 0 0119.21 5.865a19.946 19.946 0 0113.44.652 19.982 19.982 0 019.977 9.042 20.023 20.023 0 01-4.926 24.89 19.955 19.955 0 01-12.666 4.549zm9.986-29.999a2.495 2.495 0 00-2.496 2.5v15a2.502 2.502 0 002.496 2.5 2.495 2.495 0 002.497-2.5v-15A2.502 2.502 0 0035.02 15z" fill="#fff"/></svg>
